X:0386
M:6/8
L:1/8
Q:3/8=120
K:G
     dBG GFG|ABc B2c|dge dBd|cBA G2:|
     gfe dcB|ABc B2c|dBG EcB|AGF G2:|

